art/standard/gamepad/vita/rightshoulder.svg

<svg width="100px" height="100px" preserveAspectRatio="none" version="1.1" viewBox="0 0 100 100" xmlns="http://www.w3.org/2000/svg">
 <path d="m85.42 23.71-19.37 8.2401c-5.3579 1.5418-11.039 1.2306-16.413-0.039062-5.1481-0.67562-10.439 0.17318-15.313 1.8302-5.7943 4.1645-14.751 10.042-20.561 14.181l3.0469 5.5094 29.067-0.59585c5.9399-0.26059 11.723-2.2786 16.591-5.6791l26.715-16.11" fill="#a2a2a2"/>
 <path d="m61.4 47.801-18.5 5.0996-25.662-1.6855c-1.0012-0.95732-1.4795-1.8548-0.71875-4.2617l-9.6191 5.9473v22.6h36c7.2 0.1 13.367-1.5996 18.5-5.0996l31.4-20.801c2.9667-8.1666 0-22.6 0-22.6l-9.1562-0.19922c0.3125 0.40625 1.4684 2.1453 0.84961 3.7578" fill="#c8c8c8"/>
 <path d="m75.45 45.55q-0.25-0.55-0.8-0.65-0.5-0.15-1.2 0.1-0.65 0.2-1.4 0.6l-3.7 2.2 0.45 12.2 2.1-1.25-0.2-4.9 1.05-0.6 2.25 3.7 2.55-1.5-2.7-3.7q1.05-0.85 1.55-2.05 0.5-1.25 0.45-2.55-0.05-1.05-0.4-1.6m-3.5 2.45q0.3-0.2 0.6-0.3 0.3-0.15 0.5-0.05 0.25-0.05 0.4 0.15 0.15 0.15 0.2 0.65 0 0.5-0.15 0.85-0.2 0.4-0.45 0.65-0.2 0.35-0.55 0.5-0.3 0.25-0.6 0.4l-1.25 0.75-0.1-2.8z" fill="#fff"/>
 <path d="m91.85 26c-2.5002-2.2045-5.9372-1.3156-8.95-1.5m8.95 1.5c2.7816 3.3816 3.0701 8.2792 3.1663 12.533-0.4036 3.8349-0.45861 8.5775-2.9515 11.554-10.89 7.1643-21.691 14.469-32.638 21.541-6.3103 3.7675-13.793 4.0406-20.936 3.8719h-31.591c-2.4781-7.4922-2.5716-15.922 0.34922-23.291 2.394-4.4768 7.359-6.1913 11.333-8.8963l15.868-9.6631c6.2075-2.0613 12.95-2.6483 19.317-0.97227 5.3772 0.77843 11.077 0.26878 15.904-2.3514 4.3061-1.9494 8.6413-3.8369 12.929-5.8263" fill="none" stroke="#757575" stroke-linecap="round" stroke-linejoin="round" stroke-width="5"/>
 <path d="m85.15 32.1-23.75 15.7q-7.7 5.25-18.5 5.1h-23.95-1.1" fill="none" stroke="#fff" stroke-linecap="round" stroke-linejoin="round" stroke-width="4"/>
</svg>

<svg xmlns="http://www.w3.org/2000/svg" version="1.1" xmlns:xlink="http://www.w3.org/1999/xlink" preserveAspectRatio="none" x="0px" y="0px" width="100px" height="100px" viewBox="0 0 100 100">
<defs/>

<g id="PS_Vita">
<g>
<g>
<g>
<path fill="#A2A2A2" stroke="none" d="
M 83.7 26.8
Q 83.65 26.75 83.6 26.7 83.55 26.7 83.5 26.65 83.45 26.6 83.4 26.55 83.3 26.5 83.15 26.4 83.05 26.35 83 26.25 82.9 26.15 82.75 26.05 82.65 25.95 82.55 25.85 82.5 25.8 82.45 25.75
L 82.35 25.7
Q 82.3 25.65 82.3 25.6 82.25 25.6 82.25 25.55 82.2 25.5 82.15 25.45 82.1 25.4 82.05 25.3 81.95 25.25 81.9 25.15 81.85 25.15 81.8 25.1 81.7 25.05 81.6 25
L 81.55 25 66.05 31.95
Q 58.75 33.9 51.5 32.25 44.2 30.6 34.45 33.65
L 11.05 47.9
Q 8.2 50.1 6.9 52.9
L 8.9 52.9 8.9 52.85
Q 8.95 52.75 8.95 52.7 9 52.65 9 52.6 9.05 52.55 9.1 52.5 9.2 52.4 9.25 52.35 9.3 52.3 9.3 52.25 9.35 52.2 9.4 52.2 9.4 52.15 9.45 52.1 9.45 52.05 9.5 52.05 9.65 51.95 9.75 51.9 9.85 51.8 9.9 51.75 10.05 51.6 10.15 51.55 10.25 51.5 10.3 51.45 10.35 51.4 10.4 51.3 10.5 51.25 10.6 51.15 10.75 51.05 10.9 50.95 11 50.8 11.1 50.65 11.25 50.4 11.4 50.15 11.5 49.95 11.6 49.85 11.7 49.8 11.8 49.7 11.85 49.7 11.9 49.7 11.95 49.7 12.05 49.65 12.1 49.7 12.2 49.7 12.25 49.7 12.3 49.7 12.35 49.7 12.4 49.7 12.4 49.65 12.4 49.6 12.35 49.6 12.35 49.55 12.35 49.5 12.3 49.45
L 12.3 49.4
Q 12.3 49.35 12.25 49.3
L 12.25 49.25
Q 12.25 49.2 12.2 49.2 12.2 49.15 12.2 49.1
L 12.2 49.05
Q 12.2 49 12.2 48.95
L 12.2 48.9
Q 12.2 48.85 12.15 48.8
L 12.15 48.75
Q 12.15 48.7 12.1 48.65
L 12.1 48.6
Q 12.1 48.5 12.1 48.45 12.1 48.35 12.1 48.3 12.1 48.2 12.1 48.1 12.1 47.95 12.1 47.8 12.1 47.7 12.1 47.65 12.15 47.6 12.15 47.55
L 12.2 47.5
Q 12.25 47.45 12.25 47.4 12.3 47.4 12.35 47.35 12.4 47.3 12.45 47.25 12.55 47.25 12.6 47.2 12.7 47.2 12.75 47.2 12.85 47.2 12.9 47.25 12.95 47.25 13 47.25 13.05 47.25 13.15 47.3 13.2 47.35 13.25 47.35 13.3 47.4 13.35 47.45
L 13.4 47.5
Q 13.45 47.55 13.45 47.6 13.5 47.65 13.55 47.7
L 13.55 47.75
Q 13.6 47.75 13.65 47.75 13.75 47.7 13.8 47.7 13.9 47.7 13.95 47.75 14 47.75 14.1 47.8 14.15 47.8 14.2 47.85 14.25 47.9 14.25 47.95 14.3 47.95 14.35 48 14.4 47.95 14.4 47.9
L 14.4 47.85
Q 14.45 47.8 14.45 47.75 14.45 47.7 14.5 47.6 14.5 47.55 14.55 47.45
L 14.6 47.4
Q 14.6 47.35 14.6 47.3 14.65 47.3 14.65 47.25 14.65 47.2 14.7 47.2 14.7 47.15 14.7 47.1
L 14.7 47.05
Q 14.75 47 14.75 46.95
L 14.8 46.9
Q 14.85 46.85 14.9 46.8 14.95 46.75 15 46.75 15.05 46.7 15.05 46.65
L 15.1 46.6
Q 15.1 46.55 15.1 46.5 15.15 46.5 15.15 46.45 15.2 46.4 15.2 46.35 15.25 46.35 15.25 46.3 15.35 46.25 15.4 46.25 15.45 46.2 15.5 46.15 15.55 46.15 15.6 46.15 15.6 46.1 15.65 46.05 15.65 46 15.7 46 15.7 45.95 15.7 45.9 15.7 45.85 15.75 45.85 15.8 45.75 15.85 45.7 15.95 45.6 16.1 45.45 16.25 45.35 16.45 45.25 16.55 45.25 16.65 45.2 16.75 45.2 16.85 45.25 16.95 45.3 17 45.3 17.1 45.35 17.15 45.4 17.15 45.45 17.2 45.45 17.2 45.5 17.2 45.55
L 17.25 45.6
Q 17.25 45.65 17.2 45.7
L 17.2 45.75
Q 17.2 45.85 17.15 45.9 17.15 46 17.15 46.05 17.1 46.1 17.1 46.15 17.05 46.15 17.05 46.2 17 46.25 16.95 46.25 16.85 46.3 16.8 46.35 16.8 46.4 16.75 46.4 16.75 46.45 16.7 46.5
L 16.7 46.55
Q 16.7 46.6 16.7 46.65
L 16.7 46.7
Q 16.7 46.75 16.7 46.8 16.65 46.8 16.65 46.85 16.65 46.9 16.6 46.95
L 16.6 47
Q 16.6 47.05 16.6 47.1 16.55 47.1 16.55 47.15 16.55 47.2 16.5 47.2 16.5 47.25 16.45 47.3 16.45 47.35 16.4 47.45
L 16.4 47.5
Q 16.35 47.55 16.35 47.6
L 16.35 47.65
Q 16.3 47.7 16.3 47.75
L 16.3 47.8
Q 16.3 47.9 16.3 47.95 16.3 48.05 16.3 48.1 16.3 48.15 16.3 48.2
L 16.25 48.25 16.25 48.3
Q 16.25 48.35 16.2 48.4 16.2 48.45 16.2 48.55 16.2 48.7 16.2 48.85 16.2 49 16.2 49.2 16.2 49.35 16.2 49.5
L 16.25 49.55
Q 16.25 49.6 16.3 49.65
L 16.3 49.7
Q 16.3 49.75 16.3 49.8 16.3 49.85 16.35 49.85 16.35 49.95 16.35 50 16.4 50.05 16.4 50.1
L 16.45 50.15
Q 16.45 50.2 16.5 50.25
L 16.55 50.3
Q 16.6 50.35 16.6 50.45
L 16.65 50.5
Q 16.7 50.55 16.75 50.6 16.8 50.65 16.85 50.75 16.95 50.9 17.1 51 17.25 51.2 17.35 51.4
L 17.35 51.45
Q 17.4 51.5 17.45 51.55 17.55 51.6 17.6 51.6 17.7 51.7 17.8 51.75 17.85 51.8 17.9 51.85
L 17.95 51.9
Q 18 51.95 18 52
L 18.05 52.05
Q 18.05 52.1 18.05 52.15
L 18.05 52.2
Q 18.1 52.25 18.1 52.3 18.05 52.3 18.1 52.35 18.1 52.4 18.15 52.45 18.25 52.45 18.4 52.5 18.45 52.5 18.5 52.55 18.6 52.55 18.7 52.6 18.75 52.65 18.8 52.65 18.85 52.7 18.9 52.75 18.9 52.8 18.95 52.8 18.95 52.85 18.95 52.9
L 42.9 52.9
Q 53.7 53.05 61.4 47.8
L 85.15 32.1 85.5 31.75 85.5 31.7
Q 85.5 31.6 85.5 31.55 85.5 31.5 85.5 31.45 85.4 31.4 85.35 31.35 85.3 31.3 85.25 31.25 85.15 31.2 85.15 31.15
L 85.1 31.15
Q 85.05 31.15 85.05 31.2 85 31.2 84.95 31.2 84.85 31.2 84.8 31.25 84.7 31.2 84.6 31.2 84.55 31.15 84.45 31.1 84.45 31.05 84.4 31.05 84.4 31 84.35 30.95
L 84.35 30.9
Q 84.35 30.85 84.35 30.8
L 84.35 30.75
Q 84.35 30.7 84.35 30.65
L 84.35 30.6
Q 84.35 30.55 84.35 30.5
L 84.4 30.45
Q 84.4 30.4 84.4 30.35
L 84.45 30.3 84.45 30.25
Q 84.45 30.2 84.5 30.15
L 84.55 30.1
Q 84.6 30.05 84.6 30 84.6 29.95 84.65 29.95 84.65 29.9 84.65 29.85
L 84.65 29.8
Q 84.65 29.75 84.65 29.7
L 84.65 29.65
Q 84.65 29.6 84.65 29.55
L 84.65 29.5
Q 84.65 29.45 84.65 29.4
L 84.65 29.3
Q 84.65 29.25 84.65 29.2
L 84.65 29.15
Q 84.7 29.1 84.7 29.05
L 84.7 29
Q 84.7 28.95 84.65 28.9
L 84.65 28.85
Q 84.65 28.8 84.65 28.75
L 84.6 28.7
Q 84.6 28.65 84.55 28.6
L 84.55 28.55
Q 84.55 28.5 84.55 28.45
L 84.55 28.4
Q 84.5 28.35 84.5 28.3
L 84.45 28.25 84.45 28.2
Q 84.4 28.15 84.4 28.1 84.35 28.05 84.3 27.95
L 84.25 27.9
Q 84.25 27.85 84.2 27.8
L 84.2 27.75
Q 84.15 27.7 84.15 27.65
L 84.15 27.6
Q 84.1 27.55 84.1 27.5
L 84.05 27.45
Q 84.05 27.4 84 27.35
L 83.95 27.3
Q 83.95 27.25 83.9 27.2
L 83.9 27.15
Q 83.9 27.1 83.85 27.1 83.85 27.05 83.8 27
L 83.8 26.95
Q 83.75 26.9 83.75 26.85
L 83.7 26.8
M 88.15 24.5
L 82.9 24.5
Q 82.9 24.55 82.95 24.6 83 24.65 83.05 24.75 83.1 24.75 83.1 24.8 83.15 24.85 83.15 24.9 83.2 24.9 83.25 24.95 83.3 25 83.35 25.05 83.4 25.05 83.45 25.1 83.5 25.15 83.55 25.15 83.6 25.25 83.7 25.3 83.75 25.35 83.8 25.4 83.9 25.45 83.95 25.45 83.95 25.5 84 25.55 84.1 25.6 84.2 25.6 84.25 25.65 84.3 25.7 84.35 25.7 84.4 25.75 84.45 25.8 84.45 25.85 84.5 25.85 84.55 25.9 84.55 25.95 84.6 26
L 84.65 26.05
Q 84.65 26.1 84.7 26.15
L 84.7 26.2
Q 84.75 26.25 84.8 26.3
L 84.85 26.35 84.85 26.4
Q 84.9 26.45 84.9 26.5
L 84.95 26.55
Q 85 26.6 85 26.65
L 85.05 26.7
Q 85.1 26.75 85.1 26.8
L 85.15 26.85
Q 85.15 26.95 85.2 27 85.2 26.9 85.25 26.8 85.25 26.75 85.25 26.7 85.3 26.7 85.3 26.65 85.35 26.6 85.35 26.55 85.4 26.55 85.45 26.5 85.5 26.45 85.55 26.4 85.7 26.4 85.8 26.35 85.9 26.4 86 26.4 86.05 26.45 86.15 26.5
L 86.2 26.5
Q 86.25 26.5 86.3 26.45
L 86.35 26.4
Q 86.4 26.35 86.45 26.3 86.55 26.3 86.6 26.25 86.65 26.25 86.75 26.25 86.8 26.25 86.85 26.25 86.9 26.25 87 26.25 87.05 26.3 87.1 26.35 87.15 26.35 87.25 26.4
L 87.3 26.45
Q 87.35 26.45 87.4 26.4 87.45 26.4 87.5 26.35 87.6 26.35 87.75 26.35 87.85 26.35 88 26.35 88.15 26.4 88.25 26.45 88.4 26.45 88.55 26.45 88.65 26.45 88.8 26.45 88.85 26.45 88.95 26.5 89 26.55 89.05 26.55 89.1 26.6 89.1 26.65 89.15 26.7 89.2 26.7 89.2 26.75 89.2 26.8
L 89.25 26.8
Q 89.3 26.85 89.35 26.85 89.45 26.8 89.5 26.8 89.6 26.8 89.65 26.85 89.7 26.85 89.8 26.9 89.85 26.9 89.9 26.95 89.95 27 90 27.05
L 90.05 27.1
Q 90.05 27.15 90.1 27.2
L 90.1 27.25 90.15 27.3
Q 90.15 27.35 90.15 27.4 90.2 27.45 90.2 27.5
L 91.85 26
Q 90.3 24.7 88.15 24.5 Z"/>

<path fill="#C8C8C8" stroke="none" d="
M 82.9 24.5
L 82.6 24.5 81.55 25 81.6 25
Q 81.7 25.05 81.8 25.1 81.85 25.15 81.9 25.15 81.95 25.25 82.05 25.3 82.1 25.4 82.15 25.45 82.2 25.5 82.25 25.55 82.25 25.6 82.3 25.6 82.3 25.65 82.35 25.7
L 82.45 25.75
Q 82.5 25.8 82.55 25.85 82.65 25.95 82.75 26.05 82.9 26.15 83 26.25 83.05 26.35 83.15 26.4 83.3 26.5 83.4 26.55 83.45 26.6 83.5 26.65 83.55 26.7 83.6 26.7 83.65 26.75 83.7 26.8
L 83.75 26.85
Q 83.75 26.9 83.8 26.95
L 83.8 27
Q 83.85 27.05 83.85 27.1 83.9 27.1 83.9 27.15
L 83.9 27.2
Q 83.95 27.25 83.95 27.3
L 84 27.35
Q 84.05 27.4 84.05 27.45
L 84.1 27.5
Q 84.1 27.55 84.15 27.6
L 84.15 27.65
Q 84.15 27.7 84.2 27.75
L 84.2 27.8
Q 84.25 27.85 84.25 27.9
L 84.3 27.95
Q 84.35 28.05 84.4 28.1 84.4 28.15 84.45 28.2
L 84.45 28.25 84.5 28.3
Q 84.5 28.35 84.55 28.4
L 84.55 28.45
Q 84.55 28.5 84.55 28.55
L 84.55 28.6
Q 84.6 28.65 84.6 28.7
L 84.65 28.75
Q 84.65 28.8 84.65 28.85
L 84.65 28.9
Q 84.7 28.95 84.7 29
L 84.7 29.05
Q 84.7 29.1 84.65 29.15
L 84.65 29.2
Q 84.65 29.25 84.65 29.3
L 84.65 29.4
Q 84.65 29.45 84.65 29.5
L 84.65 29.55
Q 84.65 29.6 84.65 29.65
L 84.65 29.7
Q 84.65 29.75 84.65 29.8
L 84.65 29.85
Q 84.65 29.9 84.65 29.95 84.6 29.95 84.6 30 84.6 30.05 84.55 30.1
L 84.5 30.15
Q 84.45 30.2 84.45 30.25
L 84.45 30.3 84.4 30.35
Q 84.4 30.4 84.4 30.45
L 84.35 30.5
Q 84.35 30.55 84.35 30.6
L 84.35 30.65
Q 84.35 30.7 84.35 30.75
L 84.35 30.8
Q 84.35 30.85 84.35 30.9
L 84.35 30.95
Q 84.4 31 84.4 31.05 84.45 31.05 84.45 31.1 84.55 31.15 84.6 31.2 84.7 31.2 84.8 31.25 84.85 31.2 84.95 31.2 85 31.2 85.05 31.2 85.05 31.15 85.1 31.15
L 85.15 31.15
Q 85.15 31.2 85.25 31.25 85.3 31.3 85.35 31.35 85.4 31.4 85.5 31.45 85.5 31.5 85.5 31.55 85.5 31.6 85.5 31.7
L 85.5 31.75 85.15 32.1 61.4 47.8
Q 53.7 53.05 42.9 52.9
L 18.95 52.9 17.85 52.9 18.95 52.9
Q 18.95 52.85 18.95 52.8 18.9 52.8 18.9 52.75 18.85 52.7 18.8 52.65 18.75 52.65 18.7 52.6 18.6 52.55 18.5 52.55 18.45 52.5 18.4 52.5 18.25 52.45 18.15 52.45 18.1 52.4 18.1 52.35 18.05 52.3 18.1 52.3 18.1 52.25 18.05 52.2
L 18.05 52.15
Q 18.05 52.1 18.05 52.05
L 18 52
Q 18 51.95 17.95 51.9
L 17.9 51.85
Q 17.85 51.8 17.8 51.75 17.7 51.7 17.6 51.6 17.55 51.6 17.45 51.55 17.4 51.5 17.35 51.45
L 17.35 51.4
Q 17.25 51.2 17.1 51 16.95 50.9 16.85 50.75 16.8 50.65 16.75 50.6 16.7 50.55 16.65 50.5
L 16.6 50.45
Q 16.6 50.35 16.55 50.3
L 16.5 50.25
Q 16.45 50.2 16.45 50.15
L 16.4 50.1
Q 16.4 50.05 16.35 50 16.35 49.95 16.35 49.85 16.3 49.85 16.3 49.8 16.3 49.75 16.3 49.7
L 16.3 49.65
Q 16.25 49.6 16.25 49.55
L 16.2 49.5
Q 16.2 49.35 16.2 49.2 16.2 49 16.2 48.85 16.2 48.7 16.2 48.55 16.2 48.45 16.2 48.4 16.25 48.35 16.25 48.3
L 16.25 48.25 16.3 48.2
Q 16.3 48.15 16.3 48.1 16.3 48.05 16.3 47.95 16.3 47.9 16.3 47.8
L 16.3 47.75
Q 16.3 47.7 16.35 47.65
L 16.35 47.6
Q 16.35 47.55 16.4 47.5
L 16.4 47.45
Q 16.45 47.35 16.45 47.3 16.5 47.25 16.5 47.2 16.55 47.2 16.55 47.15 16.55 47.1 16.6 47.1 16.6 47.05 16.6 47
L 16.6 46.95
Q 16.65 46.9 16.65 46.85 16.65 46.8 16.7 46.8 16.7 46.75 16.7 46.7
L 16.7 46.65
Q 16.7 46.6 16.7 46.55
L 16.7 46.5
Q 16.75 46.45 16.75 46.4 16.8 46.4 16.8 46.35 16.85 46.3 16.95 46.25 17 46.25 17.05 46.2 17.05 46.15 17.1 46.15 17.1 46.1 17.15 46.05 17.15 46 17.15 45.9 17.2 45.85 17.2 45.75
L 17.2 45.7
Q 17.25 45.65 17.25 45.6
L 17.2 45.55
Q 17.2 45.5 17.2 45.45 17.15 45.45 17.15 45.4 17.1 45.35 17 45.3 16.95 45.3 16.85 45.25 16.75 45.2 16.65 45.2 16.55 45.25 16.45 45.25 16.25 45.35 16.1 45.45 15.95 45.6 15.85 45.7 15.8 45.75 15.75 45.85 15.7 45.85 15.7 45.9 15.7 45.95 15.7 46 15.65 46 15.65 46.05 15.6 46.1 15.6 46.15 15.55 46.15 15.5 46.15 15.45 46.2 15.4 46.25 15.35 46.25 15.25 46.3 15.25 46.35 15.2 46.35 15.2 46.4 15.15 46.45 15.15 46.5 15.1 46.5 15.1 46.55 15.1 46.6
L 15.05 46.65
Q 15.05 46.7 15 46.75 14.95 46.75 14.9 46.8 14.85 46.85 14.8 46.9
L 14.75 46.95
Q 14.75 47 14.7 47.05
L 14.7 47.1
Q 14.7 47.15 14.7 47.2 14.65 47.2 14.65 47.25 14.65 47.3 14.6 47.3 14.6 47.35 14.6 47.4
L 14.55 47.45
Q 14.5 47.55 14.5 47.6 14.45 47.7 14.45 47.75 14.45 47.8 14.4 47.85
L 14.4 47.9
Q 14.4 47.95 14.35 48 14.3 47.95 14.25 47.95 14.25 47.9 14.2 47.85 14.15 47.8 14.1 47.8 14 47.75 13.95 47.75 13.9 47.7 13.8 47.7 13.75 47.7 13.65 47.75 13.6 47.75 13.55 47.75
L 13.55 47.7
Q 13.5 47.65 13.45 47.6 13.45 47.55 13.4 47.5
L 13.35 47.45
Q 13.3 47.4 13.25 47.35 13.2 47.35 13.15 47.3 13.05 47.25 13 47.25 12.95 47.25 12.9 47.25 12.85 47.2 12.75 47.2 12.7 47.2 12.6 47.2 12.55 47.25 12.45 47.25 12.4 47.3 12.35 47.35 12.3 47.4 12.25 47.4 12.25 47.45 12.2 47.5
L 12.15 47.55
Q 12.15 47.6 12.1 47.65 12.1 47.7 12.1 47.8 12.1 47.95 12.1 48.1 12.1 48.2 12.1 48.3 12.1 48.35 12.1 48.45 12.1 48.5 12.1 48.6
L 12.1 48.65
Q 12.15 48.7 12.15 48.75
L 12.15 48.8
Q 12.2 48.85 12.2 48.9
L 12.2 48.95
Q 12.2 49 12.2 49.05
L 12.2 49.1
Q 12.2 49.15 12.2 49.2 12.25 49.2 12.25 49.25
L 12.25 49.3
Q 12.3 49.35 12.3 49.4
L 12.3 49.45
Q 12.35 49.5 12.35 49.55 12.35 49.6 12.4 49.6 12.4 49.65 12.4 49.7 12.35 49.7 12.3 49.7 12.25 49.7 12.2 49.7 12.1 49.7 12.05 49.65 11.95 49.7 11.9 49.7 11.85 49.7 11.8 49.7 11.7 49.8 11.6 49.85 11.5 49.95 11.4 50.15 11.25 50.4 11.1 50.65 11 50.8 10.9 50.95 10.75 51.05 10.6 51.15 10.5 51.25 10.4 51.3 10.35 51.4 10.3 51.45 10.25 51.5 10.15 51.55 10.05 51.6 9.9 51.75 9.85 51.8 9.75 51.9 9.65 51.95 9.5 52.05 9.45 52.05 9.45 52.1 9.4 52.15 9.4 52.2 9.35 52.2 9.3 52.25 9.3 52.3 9.25 52.35 9.2 52.4 9.1 52.5 9.05 52.55 9 52.6 9 52.65 8.95 52.7 8.95 52.75 8.9 52.85
L 8.9 52.9 6.9 52.9
Q 3.2 64.2 6.9 75.5
L 42.9 75.5
Q 53.7 75.65 61.4 70.4
L 92.8 49.6
Q 97.25 37.35 92.8 27 92.35 26.4 91.85 26
L 90.2 27.5
Q 90.2 27.45 90.15 27.4 90.15 27.35 90.15 27.3
L 90.1 27.25 90.1 27.2
Q 90.05 27.15 90.05 27.1
L 90 27.05
Q 89.95 27 89.9 26.95 89.85 26.9 89.8 26.9 89.7 26.85 89.65 26.85 89.6 26.8 89.5 26.8 89.45 26.8 89.35 26.85 89.3 26.85 89.25 26.8
L 89.2 26.8
Q 89.2 26.75 89.2 26.7 89.15 26.7 89.1 26.65 89.1 26.6 89.05 26.55 89 26.55 88.95 26.5 88.85 26.45 88.8 26.45 88.65 26.45 88.55 26.45 88.4 26.45 88.25 26.45 88.15 26.4 88 26.35 87.85 26.35 87.75 26.35 87.6 26.35 87.5 26.35 87.45 26.4 87.4 26.4 87.35 26.45 87.3 26.45
L 87.25 26.4
Q 87.15 26.35 87.1 26.35 87.05 26.3 87 26.25 86.9 26.25 86.85 26.25 86.8 26.25 86.75 26.25 86.65 26.25 86.6 26.25 86.55 26.3 86.45 26.3 86.4 26.35 86.35 26.4
L 86.3 26.45
Q 86.25 26.5 86.2 26.5
L 86.15 26.5
Q 86.05 26.45 86 26.4 85.9 26.4 85.8 26.35 85.7 26.4 85.55 26.4 85.5 26.45 85.45 26.5 85.4 26.55 85.35 26.55 85.35 26.6 85.3 26.65 85.3 26.7 85.25 26.7 85.25 26.75 85.25 26.8 85.2 26.9 85.2 27 85.15 26.95 85.15 26.85
L 85.1 26.8
Q 85.1 26.75 85.05 26.7
L 85 26.65
Q 85 26.6 84.95 26.55
L 84.9 26.5
Q 84.9 26.45 84.85 26.4
L 84.85 26.35 84.8 26.3
Q 84.75 26.25 84.7 26.2
L 84.7 26.15
Q 84.65 26.1 84.65 26.05
L 84.6 26
Q 84.55 25.95 84.55 25.9 84.5 25.85 84.45 25.85 84.45 25.8 84.4 25.75 84.35 25.7 84.3 25.7 84.25 25.65 84.2 25.6 84.1 25.6 84 25.55 83.95 25.5 83.95 25.45 83.9 25.45 83.8 25.4 83.75 25.35 83.7 25.3 83.6 25.25 83.55 25.15 83.5 25.15 83.45 25.1 83.4 25.05 83.35 25.05 83.3 25 83.25 24.95 83.2 24.9 83.15 24.9 83.15 24.85 83.1 24.8 83.1 24.75 83.05 24.75 83 24.65 82.95 24.6 82.9 24.55 82.9 24.5
M 74.65 44.9
Q 75.2 45 75.45 45.55 75.8 46.1 75.85 47.15 75.9 48.45 75.4 49.7 74.9 50.9 73.85 51.75
L 76.55 55.45 74 56.95 71.75 53.25 70.7 53.85 70.9 58.75 68.8 60 68.35 47.8 72.05 45.6
Q 72.8 45.2 73.45 45 74.15 44.75 74.65 44.9
M 72.55 47.7
Q 72.25 47.8 71.95 48
L 70.55 48.8 70.65 51.6 71.9 50.85
Q 72.2 50.7 72.5 50.45 72.85 50.3 73.05 49.95 73.3 49.7 73.5 49.3 73.65 48.95 73.65 48.45 73.6 47.95 73.45 47.8 73.3 47.6 73.05 47.65 72.85 47.55 72.55 47.7 Z"/>

<path fill="#FFFFFF" stroke="none" d="
M 75.45 45.55
Q 75.2 45 74.65 44.9 74.15 44.75 73.45 45 72.8 45.2 72.05 45.6
L 68.35 47.8 68.8 60 70.9 58.75 70.7 53.85 71.75 53.25 74 56.95 76.55 55.45 73.85 51.75
Q 74.9 50.9 75.4 49.7 75.9 48.45 75.85 47.15 75.8 46.1 75.45 45.55
M 71.95 48
Q 72.25 47.8 72.55 47.7 72.85 47.55 73.05 47.65 73.3 47.6 73.45 47.8 73.6 47.95 73.65 48.45 73.65 48.95 73.5 49.3 73.3 49.7 73.05 49.95 72.85 50.3 72.5 50.45 72.2 50.7 71.9 50.85
L 70.65 51.6 70.55 48.8 71.95 48 Z"/>
</g>
</g>

<g>
<path stroke="#757575" stroke-width="5" stroke-linejoin="round" stroke-linecap="round" fill="none" d="
M 91.85 26
Q 90.3 24.7 88.15 24.5
L 82.9 24.5
M 91.85 26
Q 92.35 26.4 92.8 27 97.25 37.35 92.8 49.6
L 61.4 70.4
Q 53.7 75.65 42.9 75.5
L 6.9 75.5
Q 3.2 64.2 6.9 52.9 8.2 50.1 11.05 47.9
L 34.45 33.65
Q 44.2 30.6 51.5 32.25 58.75 33.9 66.05 31.95
L 81.55 25 82.6 24.5"/>
</g>

<g>
<path stroke="#FFFFFF" stroke-width="4" stroke-linejoin="round" stroke-linecap="round" fill="none" d="
M 85.15 32.1
L 61.4 47.8
Q 53.7 53.05 42.9 52.9
L 18.95 52.9 17.85 52.9"/>
</g>
</g>
</g>
</svg>
